src/icons/boosty.svg

<svg viewBox="0 0 24 24" xmlns="http://www.w3.org/2000/svg"><path d="m2.69974 14.3336 4.1511-14.3187685h6.37946l-1.2861 4.4389385c-.0127.02537-.0254.05073-.0382.0761l-3.38708 11.71883h3.15788c-1.3243 3.2848-2.35567 5.8594-3.09421 7.7237-5.83192-.0634-7.4618-4.2233-6.03565-9.1442m6.06112 9.1569 7.69104-11.0212h-3.2598l2.8396-7.0643c4.8641.50731 7.1562 4.3248 5.8064 8.9413-1.4389 4.9589-7.2708 9.1442-12.94991 9.1442-.05093 0-.08913 0-.12733 0z"/></svg>

<svg role="img" viewBox="0 0 24 24" xmlns="http://www.w3.org/2000/svg"><title>Boosty icon</title>
<path d="M2.69974 14.3336L6.85084 0.0148315H13.2303L11.9442 4.45377C11.9315 4.47914 11.9188 4.5045 11.906 4.52987L8.51892 16.2487H11.6768C10.3525 19.5335 9.32113 22.1081 8.58259 23.9724C2.75067 23.909 1.12079 19.7491 2.54694 14.8282M8.60806 23.9851L16.2991 12.9639H13.0393L15.8789 5.8996C20.743 6.40691 23.0351 10.2244 21.6853 14.8409C20.2464 19.7998 14.4145 23.9851 8.73539 23.9851C8.68446 23.9851 8.64626 23.9851 8.60806 23.9851Z"/>
</svg>
